X: 13
T:Charlie Harris' Polka
T:Kevin Burke Polka #1
R:Polka
D:Kevin Burke, "If the Cap Fits"
M:2/4
L:1/8
K:D
B/|AF DF|EF DF|AF AB|e2 d>B|AF DF|EF DF| AF AB| Bd d3/2 :|
A/|d2 fd|ef dB|AF AB|e2 dB|d2 fd|ef dB|AF AB|Bd d>A||
d2 fd|ef dB|AF AB|e2 dB|df fe/2f/2|af fe/2f/2|af ef|d2 d3/2|]
